gama.ui.shared/icons_svg/dark/editor/add.experiment.svg

<svg height="24.75" viewBox="-23.918 -3263.881 24.75 24.75" width="24.75" xmlns="http://www.w3.org/2000/svg"><g fill="none"><circle cx="-11.543" cy="-3251.506" fill="#666" r="8"/><circle cx="-11.543" cy="-3251.506" r="8"/><circle cx="-11.543" cy="-3251.506" fill="#666" r="8"/><circle cx="-11.543" cy="-3251.506" r="8"/><path d="m-11.162042-3251.8868h2.666667c.210394 0 .380952.1706.380952.3808 0 .2106-.170558.381-.380952.381h-2.666667v2.6668c0 .2102-.170558.3809-.380953.3809-.210394 0-.380952-.1707-.380952-.3809v-2.6668h-2.666667c-.210394 0-.380952-.1704-.380952-.381 0-.2102.170558-.3808.380952-.3808h2.666667v-2.6667c0-.2105.170558-.3809.380952-.3809.210395 0 .380953.1704.380953.3809zm-.380953 8.3808c-4.418278 0-8-3.5816-8-8 0-4.418 3.581722-8 8-8 4.4182785 0 8.0000005 3.582 8.0000005 8 0 4.4184-3.581722 8-8.0000005 8zm0-.7617c3.99749 0 7.2380957-3.2407 7.2380957-7.2383 0-3.9973-3.2406057-7.238-7.2380957-7.238-3.997489 0-7.238095 3.2407-7.238095 7.238 0 3.9976 3.240606 7.2383 7.238095 7.2383z" fill="#8cee61"/></g></svg>

<?xml version="1.0" encoding="UTF-8" standalone="no"?>
<!DOCTYPE svg PUBLIC "-//W3C//DTD SVG 1.1//EN" "http://www.w3.org/Graphics/SVG/1.1/DTD/svg11.dtd">
<svg xmlns="http://www.w3.org/2000/svg" xmlns:dc="http://purl.org/dc/elements/1.1/" version="1.1" xmlns:xl="http://www.w3.org/1999/xlink" viewBox="-23.917995 -3263.881 24.75 24.75" width="24.75" height="24.75">
  <defs/>
  <g id="SOURCES" stroke-dasharray="none" stroke-opacity="1" stroke="none" fill="none" fill-opacity="1">
    <title>SOURCES</title>
    <g id="SOURCES_Dark">
      <title>Dark</title>
      <g id="Graphic_12199">
        <circle cx="-11.542995" cy="-3251.506" r="8.0000070208016" fill="#666"/>
        <circle cx="-11.542995" cy="-3251.506" r="8.0000070208016" stroke="black" stroke-linecap="round" stroke-linejoin="round" stroke-width="0"/>
      </g>
      <g id="Graphic_12184"/>
      <g id="Graphic_12196">
        <circle cx="-11.542995" cy="-3251.506" r="8.0000070208016" fill="#666"/>
        <circle cx="-11.542995" cy="-3251.506" r="8.0000070208016" stroke="black" stroke-linecap="round" stroke-linejoin="round" stroke-width="0"/>
      </g>
      <g id="Graphic_12194">
        <path d="M -11.162042 -3251.8868 L -8.495375 -3251.8868 C -8.284981 -3251.8868 -8.114423 -3251.7162 -8.114423 -3251.506 C -8.114423 -3251.2954 -8.284981 -3251.125 -8.495375 -3251.125 L -11.162042 -3251.125 L -11.162042 -3248.4582 C -11.162042 -3248.248 -11.3326 -3248.0773 -11.542995 -3248.0773 C -11.753389 -3248.0773 -11.923947 -3248.248 -11.923947 -3248.4582 L -11.923947 -3251.125 L -14.590614 -3251.125 C -14.801008 -3251.125 -14.971566 -3251.2954 -14.971566 -3251.506 C -14.971566 -3251.7162 -14.801008 -3251.8868 -14.590614 -3251.8868 L -11.923947 -3251.8868 L -11.923947 -3254.5535 C -11.923947 -3254.764 -11.753389 -3254.9344 -11.542995 -3254.9344 C -11.3326 -3254.9344 -11.162042 -3254.764 -11.162042 -3254.5535 Z M -11.542995 -3243.506 C -15.961273 -3243.506 -19.542995 -3247.0876 -19.542995 -3251.506 C -19.542995 -3255.924 -15.961273 -3259.506 -11.542995 -3259.506 C -7.1247165 -3259.506 -3.5429945 -3255.924 -3.5429945 -3251.506 C -3.5429945 -3247.0876 -7.1247165 -3243.506 -11.542995 -3243.506 Z M -11.542995 -3244.2677 C -7.545505 -3244.2677 -4.3048993 -3247.5084 -4.3048993 -3251.506 C -4.3048993 -3255.5033 -7.545505 -3258.744 -11.542995 -3258.744 C -15.540484 -3258.744 -18.78109 -3255.5033 -18.78109 -3251.506 C -18.78109 -3247.5084 -15.540484 -3244.2677 -11.542995 -3244.2677 Z" fill="#8cee61"/>
      </g>
    </g>
  </g>
</svg>
